X: 329
T: Bulgar "Shabes af der Moldavanka"
T: (Papirosen)
R:
O:
Q: 1/4=144
B: German Goldenshteyn "Shpilt klezmorimlach klingen zoln di gesalach" New York 2003 v.3 #29
Z: 2012 John Chambers <jc:trillian.mit.edu>
M: 2/4
L: 1/8
K: Em
|:\
(3(EB,)E (3(GE)G | (3(BG)B e2 | g>f (3(gf)e | B3z |\
g>f (3(gf)e | e>^d (3(ed)c | (3(Bc)d (3(cB)A | A3A |
Afff | (~f>e) (~e>^d) | (~^d>c) (~c>B) | (~B>A) (~A>G) |\
(F/G/)A- AG | (3(BA)G (3(AG)F |[1 E4- | E BGF :|[2 E4- | E Bef ||
|:\
g4 | fg (3(gf)e | ^de B2 |^de B2 |\
e^de=f | e=dcB | (B/d/)cA2 | (B/d/)cA2 |
Afff | (~f>e) (~e>^d) | (~^d>c) (~c>B) | (~B>A) (~A>G) |\
(F/G/)A- AG | (3(BA)G (3(AG)F |[1 E4- | E Bef :|[2 E4- | E2 zB, ||
|:\
E4- | EFGA | B4- | BB,EF |\
G2B2 | A2G2 | F4- | F2zB, |
F4- | FFG^G | A4- | AABc |\
(3(Bc)B (3(AB)A | (3(GA)G (3(FG)F |[1 (3(E^D)E (3(GF)G | (3B^AB eB, :|[2 E4- | Ezz2 |]
